X:276
M:6/8
L:1/8
K:D
f|d2F FGF| ABc def|edc dcB|A2E E2f|d2F FGF|ABc def|edc dcB|A2F F2:|
d|AGF AGF|AGF ABc|dcB AGF|A2E E2B|AGF AGF|ABc def|edc dcB|
agf edc|dAF F2||

